ligands/tridentate/terpyridine.svg

<svg height="256" viewBox="0 0 256 256" width="256" xmlns="http://www.w3.org/2000/svg"><path d="m0 0h256v256h-256z" fill="#fff"/><ellipse cx="136.8" cy="142.8" fill="#ff7f7f" fill-rule="evenodd" rx="12.8" ry="12.8" stroke="#ff7f7f"/><g fill="none" stroke="#000" stroke-width="2"><path d="m205.7 150 37.1 21.5"/><path d="m205.7 157.6 30.6 17.6"/><path d="m242.8 171.5v42.8"/><path d="m242.8 214.3-37.1 21.4"/><path d="m236.2 210.5-30.5 17.6"/><path d="m205.7 235.7-37.1-21.4"/><path d="m168.6 214.3v-28.6"/><path d="m175.2 210.5v-24.8"/><path d="m163.4 100.7 31.6-10.2"/><path d="m161.4 94.5 28-9.1"/><path d="m195 90.5 8.9-41.9"/><path d="m203.9 48.6-31.8-28.7"/><path d="m196.7 50.9-26.2-23.6"/><path d="m172.1 19.9-40.8 13.2"/><path d="m131.3 33.1-8.9 41.9"/><path d="m137 38.2-7.4 34.5"/><path d="m122.4 75-37 21.4"/><path d="m85.4 96.4-40.8-13.2"/><path d="m79.7 101.5-33.5-10.9"/><path d="m44.6 83.2-31.8 28.6"/><path d="m12.8 111.8 8.9 41.9"/><path d="m20 114.1 7.3 34.5"/><path d="m21.7 153.7 40.7 13.2"/><path d="m62.4 166.9 22.7-20.4"/><path d="m60.8 159.6 19.9-17.9"/><path d="m177.8 166.2 27.9-16.2"/><path d="m195 90.5 10.7 59.5"/><path d="m92.3 129.2-6.9-32.8"/><path d="m122.4 75 22.7 20.4"/><path d="m159.5 163.2-13.5-12.2"/><path d="m147.9 118-7 15.6"/><path d="m103.4 139.3 24.3 2.5"/><path d="m240.9 170.4 1.9 1.1v2.1" stroke-miterlimit="10"/><path d="m242.8 212.2v2.1l-1.9 1.1" stroke-miterlimit="10"/><path d="m207.5 234.6-1.8 1.1-1.9-1.1" stroke-miterlimit="10"/><path d="m170.5 215.3-1.9-1v-1.5" stroke-miterlimit="10"/><path d="m203.4 50.7.5-2.1-1.6-1.5" stroke-miterlimit="10"/><path d="m173.7 21.3-1.6-1.4-2.1.7" stroke-miterlimit="10"/><path d="m133.4 32.5-2.1.6-.4 2.1" stroke-miterlimit="10"/><path d="m46.7 83.8-2.1-.6-1.6 1.4" stroke-miterlimit="10"/><path d="m14.4 110.4-1.6 1.4.4 2.1" stroke-miterlimit="10"/><path d="m21.2 151.6.5 2.1 2 .7" stroke-miterlimit="10"/><path d="m60.4 166.3 2 .6 1.1-1" stroke-miterlimit="10"/></g><text font-family="sans-serif" font-size="25" x="160.9" y="184.3">N</text><text x="129.1" y="155.6"/><text font-family="sans-serif" font-size="25" x="146.5" y="116.5">N</text><text font-family="sans-serif" font-size="25" x="86.5" y="151.1">N</text></svg>

<?xml version='1.0' encoding='iso-8859-1'?>
<svg version='1.1' baseProfile='full'
              xmlns='http://www.w3.org/2000/svg'
                      xmlns:rdkit='http://www.rdkit.org/xml'
                      xmlns:xlink='http://www.w3.org/1999/xlink'
                  xml:space='preserve'
width='256px' height='256px' viewBox='0 0 256 256'>
<!-- END OF HEADER -->
<rect style='opacity:1.0;fill:#FFFFFF;stroke:none' width='256.0' height='256.0' x='0.0' y='0.0'> </rect>
<ellipse cx='136.8' cy='142.8' rx='12.8' ry='12.8' class='atom-6'  style='fill:#FF7F7F;fill-rule:evenodd;stroke:#FF7F7F;stroke-width:1.0px;stroke-linecap:butt;stroke-linejoin:miter;stroke-opacity:1' />
<path class='bond-0 atom-0 atom-1' d='M 205.7,150.0 L 242.8,171.5' style='fill:none;fill-rule:evenodd;stroke:#000000;stroke-width:2.0px;stroke-linecap:butt;stroke-linejoin:miter;stroke-opacity:1' />
<path class='bond-0 atom-0 atom-1' d='M 205.7,157.6 L 236.3,175.2' style='fill:none;fill-rule:evenodd;stroke:#000000;stroke-width:2.0px;stroke-linecap:butt;stroke-linejoin:miter;stroke-opacity:1' />
<path class='bond-1 atom-1 atom-2' d='M 242.8,171.5 L 242.8,214.3' style='fill:none;fill-rule:evenodd;stroke:#000000;stroke-width:2.0px;stroke-linecap:butt;stroke-linejoin:miter;stroke-opacity:1' />
<path class='bond-2 atom-2 atom-3' d='M 242.8,214.3 L 205.7,235.7' style='fill:none;fill-rule:evenodd;stroke:#000000;stroke-width:2.0px;stroke-linecap:butt;stroke-linejoin:miter;stroke-opacity:1' />
<path class='bond-2 atom-2 atom-3' d='M 236.2,210.5 L 205.7,228.1' style='fill:none;fill-rule:evenodd;stroke:#000000;stroke-width:2.0px;stroke-linecap:butt;stroke-linejoin:miter;stroke-opacity:1' />
<path class='bond-3 atom-3 atom-4' d='M 205.7,235.7 L 168.6,214.3' style='fill:none;fill-rule:evenodd;stroke:#000000;stroke-width:2.0px;stroke-linecap:butt;stroke-linejoin:miter;stroke-opacity:1' />
<path class='bond-4 atom-4 atom-5' d='M 168.6,214.3 L 168.6,185.7' style='fill:none;fill-rule:evenodd;stroke:#000000;stroke-width:2.0px;stroke-linecap:butt;stroke-linejoin:miter;stroke-opacity:1' />
<path class='bond-4 atom-4 atom-5' d='M 175.2,210.5 L 175.2,185.7' style='fill:none;fill-rule:evenodd;stroke:#000000;stroke-width:2.0px;stroke-linecap:butt;stroke-linejoin:miter;stroke-opacity:1' />
<path class='bond-5 atom-7 atom-8' d='M 163.4,100.7 L 195.0,90.5' style='fill:none;fill-rule:evenodd;stroke:#000000;stroke-width:2.0px;stroke-linecap:butt;stroke-linejoin:miter;stroke-opacity:1' />
<path class='bond-5 atom-7 atom-8' d='M 161.4,94.5 L 189.4,85.4' style='fill:none;fill-rule:evenodd;stroke:#000000;stroke-width:2.0px;stroke-linecap:butt;stroke-linejoin:miter;stroke-opacity:1' />
<path class='bond-6 atom-8 atom-9' d='M 195.0,90.5 L 203.9,48.6' style='fill:none;fill-rule:evenodd;stroke:#000000;stroke-width:2.0px;stroke-linecap:butt;stroke-linejoin:miter;stroke-opacity:1' />
<path class='bond-7 atom-9 atom-10' d='M 203.9,48.6 L 172.1,19.9' style='fill:none;fill-rule:evenodd;stroke:#000000;stroke-width:2.0px;stroke-linecap:butt;stroke-linejoin:miter;stroke-opacity:1' />
<path class='bond-7 atom-9 atom-10' d='M 196.7,50.9 L 170.5,27.3' style='fill:none;fill-rule:evenodd;stroke:#000000;stroke-width:2.0px;stroke-linecap:butt;stroke-linejoin:miter;stroke-opacity:1' />
<path class='bond-8 atom-10 atom-11' d='M 172.1,19.9 L 131.3,33.1' style='fill:none;fill-rule:evenodd;stroke:#000000;stroke-width:2.0px;stroke-linecap:butt;stroke-linejoin:miter;stroke-opacity:1' />
<path class='bond-9 atom-11 atom-12' d='M 131.3,33.1 L 122.4,75.0' style='fill:none;fill-rule:evenodd;stroke:#000000;stroke-width:2.0px;stroke-linecap:butt;stroke-linejoin:miter;stroke-opacity:1' />
<path class='bond-9 atom-11 atom-12' d='M 137.0,38.2 L 129.6,72.7' style='fill:none;fill-rule:evenodd;stroke:#000000;stroke-width:2.0px;stroke-linecap:butt;stroke-linejoin:miter;stroke-opacity:1' />
<path class='bond-10 atom-12 atom-13' d='M 122.4,75.0 L 85.4,96.4' style='fill:none;fill-rule:evenodd;stroke:#000000;stroke-width:2.0px;stroke-linecap:butt;stroke-linejoin:miter;stroke-opacity:1' />
<path class='bond-11 atom-13 atom-14' d='M 85.4,96.4 L 44.6,83.2' style='fill:none;fill-rule:evenodd;stroke:#000000;stroke-width:2.0px;stroke-linecap:butt;stroke-linejoin:miter;stroke-opacity:1' />
<path class='bond-11 atom-13 atom-14' d='M 79.7,101.5 L 46.2,90.6' style='fill:none;fill-rule:evenodd;stroke:#000000;stroke-width:2.0px;stroke-linecap:butt;stroke-linejoin:miter;stroke-opacity:1' />
<path class='bond-12 atom-14 atom-15' d='M 44.6,83.2 L 12.8,111.8' style='fill:none;fill-rule:evenodd;stroke:#000000;stroke-width:2.0px;stroke-linecap:butt;stroke-linejoin:miter;stroke-opacity:1' />
<path class='bond-13 atom-15 atom-16' d='M 12.8,111.8 L 21.7,153.7' style='fill:none;fill-rule:evenodd;stroke:#000000;stroke-width:2.0px;stroke-linecap:butt;stroke-linejoin:miter;stroke-opacity:1' />
<path class='bond-13 atom-15 atom-16' d='M 20.0,114.1 L 27.3,148.6' style='fill:none;fill-rule:evenodd;stroke:#000000;stroke-width:2.0px;stroke-linecap:butt;stroke-linejoin:miter;stroke-opacity:1' />
<path class='bond-14 atom-16 atom-17' d='M 21.7,153.7 L 62.4,166.9' style='fill:none;fill-rule:evenodd;stroke:#000000;stroke-width:2.0px;stroke-linecap:butt;stroke-linejoin:miter;stroke-opacity:1' />
<path class='bond-15 atom-17 atom-18' d='M 62.4,166.9 L 85.1,146.5' style='fill:none;fill-rule:evenodd;stroke:#000000;stroke-width:2.0px;stroke-linecap:butt;stroke-linejoin:miter;stroke-opacity:1' />
<path class='bond-15 atom-17 atom-18' d='M 60.8,159.6 L 80.7,141.7' style='fill:none;fill-rule:evenodd;stroke:#000000;stroke-width:2.0px;stroke-linecap:butt;stroke-linejoin:miter;stroke-opacity:1' />
<path class='bond-16 atom-5 atom-0' d='M 177.8,166.2 L 205.7,150.0' style='fill:none;fill-rule:evenodd;stroke:#000000;stroke-width:2.0px;stroke-linecap:butt;stroke-linejoin:miter;stroke-opacity:1' />
<path class='bond-17 atom-8 atom-0' d='M 195.0,90.5 L 205.7,150.0' style='fill:none;fill-rule:evenodd;stroke:#000000;stroke-width:2.0px;stroke-linecap:butt;stroke-linejoin:miter;stroke-opacity:1' />
<path class='bond-18 atom-18 atom-13' d='M 92.3,129.2 L 85.4,96.4' style='fill:none;fill-rule:evenodd;stroke:#000000;stroke-width:2.0px;stroke-linecap:butt;stroke-linejoin:miter;stroke-opacity:1' />
<path class='bond-19 atom-12 atom-7' d='M 122.4,75.0 L 145.1,95.4' style='fill:none;fill-rule:evenodd;stroke:#000000;stroke-width:2.0px;stroke-linecap:butt;stroke-linejoin:miter;stroke-opacity:1' />
<path class='bond-20 atom-5 atom-6' d='M 159.5,163.2 L 146.0,151.0' style='fill:none;fill-rule:evenodd;stroke:#000000;stroke-width:2.0px;stroke-linecap:butt;stroke-linejoin:miter;stroke-opacity:1' />
<path class='bond-21 atom-7 atom-6' d='M 147.9,118.0 L 140.9,133.6' style='fill:none;fill-rule:evenodd;stroke:#000000;stroke-width:2.0px;stroke-linecap:butt;stroke-linejoin:miter;stroke-opacity:1' />
<path class='bond-22 atom-18 atom-6' d='M 103.4,139.3 L 127.7,141.8' style='fill:none;fill-rule:evenodd;stroke:#000000;stroke-width:2.0px;stroke-linecap:butt;stroke-linejoin:miter;stroke-opacity:1' />
<path d='M 240.9,170.4 L 242.8,171.5 L 242.8,173.6' style='fill:none;stroke:#000000;stroke-width:2.0px;stroke-linecap:butt;stroke-linejoin:miter;stroke-miterlimit:10;stroke-opacity:1;' />
<path d='M 242.8,212.2 L 242.8,214.3 L 240.9,215.4' style='fill:none;stroke:#000000;stroke-width:2.0px;stroke-linecap:butt;stroke-linejoin:miter;stroke-miterlimit:10;stroke-opacity:1;' />
<path d='M 207.5,234.6 L 205.7,235.7 L 203.8,234.6' style='fill:none;stroke:#000000;stroke-width:2.0px;stroke-linecap:butt;stroke-linejoin:miter;stroke-miterlimit:10;stroke-opacity:1;' />
<path d='M 170.5,215.3 L 168.6,214.3 L 168.6,212.8' style='fill:none;stroke:#000000;stroke-width:2.0px;stroke-linecap:butt;stroke-linejoin:miter;stroke-miterlimit:10;stroke-opacity:1;' />
<path d='M 203.4,50.7 L 203.9,48.6 L 202.3,47.1' style='fill:none;stroke:#000000;stroke-width:2.0px;stroke-linecap:butt;stroke-linejoin:miter;stroke-miterlimit:10;stroke-opacity:1;' />
<path d='M 173.7,21.3 L 172.1,19.9 L 170.0,20.6' style='fill:none;stroke:#000000;stroke-width:2.0px;stroke-linecap:butt;stroke-linejoin:miter;stroke-miterlimit:10;stroke-opacity:1;' />
<path d='M 133.4,32.5 L 131.3,33.1 L 130.9,35.2' style='fill:none;stroke:#000000;stroke-width:2.0px;stroke-linecap:butt;stroke-linejoin:miter;stroke-miterlimit:10;stroke-opacity:1;' />
<path d='M 46.7,83.8 L 44.6,83.2 L 43.0,84.6' style='fill:none;stroke:#000000;stroke-width:2.0px;stroke-linecap:butt;stroke-linejoin:miter;stroke-miterlimit:10;stroke-opacity:1;' />
<path d='M 14.4,110.4 L 12.8,111.8 L 13.2,113.9' style='fill:none;stroke:#000000;stroke-width:2.0px;stroke-linecap:butt;stroke-linejoin:miter;stroke-miterlimit:10;stroke-opacity:1;' />
<path d='M 21.2,151.6 L 21.7,153.7 L 23.7,154.4' style='fill:none;stroke:#000000;stroke-width:2.0px;stroke-linecap:butt;stroke-linejoin:miter;stroke-miterlimit:10;stroke-opacity:1;' />
<path d='M 60.4,166.3 L 62.4,166.9 L 63.5,165.9' style='fill:none;stroke:#000000;stroke-width:2.0px;stroke-linecap:butt;stroke-linejoin:miter;stroke-miterlimit:10;stroke-opacity:1;' />
<text x='160.9' y='184.3' class='atom-5' style='font-size:25px;font-style:normal;font-weight:normal;fill-opacity:1;stroke:none;font-family:sans-serif;text-anchor:start;fill:#000000' >N</text>
<text x='129.1' y='155.6' class='atom-6' style='font-size:25px;font-style:normal;font-weight:normal;fill-opacity:1;stroke:none;font-family:sans-serif;text-anchor:start;fill:#000000' ></text>
<text x='146.5' y='116.5' class='atom-7' style='font-size:25px;font-style:normal;font-weight:normal;fill-opacity:1;stroke:none;font-family:sans-serif;text-anchor:start;fill:#000000' >N</text>
<text x='86.5' y='151.1' class='atom-18' style='font-size:25px;font-style:normal;font-weight:normal;fill-opacity:1;stroke:none;font-family:sans-serif;text-anchor:start;fill:#000000' >N</text>
</svg>
